X: 22359
T: Lacey's
R: jig
M: 6/8
K: Adorian
|:EAA A^ce|d2d e^cA|E2E ABc|DEF G3|
EAA A^ce|g2b age|d(3Bcd gdb|AGE EAA:|
|:eaa b2a|edB AEd|efg e2d|BAG EDB|
eaa b2a|edB AGD|GAB d2e|dBA EAA:|

